X: 113
T: Mrs MORAY OF ABERCARNEY
C: N. GOW
R: Strahspey
B: Glen Collection p.11 #3
Z: 2011 John Chambers <jc:trillian.mit.edu>
M: C
L: 1/8
V: 1 middle=B clef=treble
V: 2 middle=d clef=bass
%%score {1 | 2}
K: D
%
V: 1
|:\
D/D/D F2  A<D F<D |  E<=c  G<c E<C E2 | D/D/D F2  A<D F<D | D<d F<d F<D TF2 :|
d/d/d f>d A>d f>d | =c/c/c e<c g<c e2 | d/d/d f>d a<d f<d | A<d F<d F<D F2 |
d/d/d f>d A>d f>d | =c/c/c e<c g>c e2 | d>f   e>g f>a e<g | f>d e>c d<A F2 |]
%
V: 2
|:\
[a2f2d2] [a2f2d2] [a2f2d2] [a2f2d2] | [g2e2=c2] [g2e2c2] [g2e2c2] [g2e2c2] |\
[a2f2d2] [a2f2d2] [a2f2d2] [a2f2d2] | [a2d2] [a2d2] [a2d2] [a2d2] :|
d2 [a'2d'2] [f'2d'2] [a'2d'2] | =c2 [g'2=c'2] [f'2d'2] [g'2c'2] |\
d2 [a'2d'2] [f'2d'2] [a'2d'2] | d2 [a2d2] [a2d2] [a2d2] |
d2 [a'2d'2] [f'2d'2] [a'2d'2] | =c2 [g'2=c'2] [f'2d'2] [g'2c'2] |\
d2 [c'2a2] [d'2a2] [c'2a2] | a2 [g2A2] [f2d2] [a2d2] |]
